symbols/web/invert_colors_off/materialsymbolsrounded/invert_colors_off_wght200gradN25_48px.svg

<svg xmlns="http://www.w3.org/2000/svg" height="48" width="48"><path d="M36.7 31.95 24 19.25V8.95l-5.2 5.15-1.1-1.05 5.35-5.3q.2-.15.425-.25.225-.1.525-.1.3 0 .55.125.25.125.4.225l8.95 8.75q2.05 2 3.05 4.65 1 2.65 1 5.15 0 1.45-.375 3.025T36.7 31.95Zm2.65 9.85-5.7-5.7q-2.1 2.05-4.6 2.95-2.5.9-5.05.9-5.75 0-9.85-3.925t-4.1-9.725q0-2.45.875-4.925Q11.8 18.9 14.1 16.55l-6.5-6.5q-.2-.2-.225-.525Q7.35 9.2 7.6 8.95q.25-.2.55-.2.3 0 .55.2L40.45 40.7q.2.25.225.575.025.325-.225.525-.2.25-.525.25t-.575-.25ZM24 38.45V26.4l-8.8-8.8q-2.15 2.1-2.9 4.3-.75 2.2-.75 4.4 0 5.15 3.65 8.65t8.8 3.5Z"/></svg>

<svg xmlns="http://www.w3.org/2000/svg" height="48" width="48"><path d="M36.7 31.95 24 19.25V8.95L18.8 14.1L17.7 13.05L23.05 7.75Q23.25 7.6 23.475 7.5Q23.7 7.4 24 7.4Q24.3 7.4 24.55 7.525Q24.8 7.65 24.95 7.75L33.9 16.5Q35.95 18.5 36.95 21.15Q37.95 23.8 37.95 26.3Q37.95 27.75 37.575 29.325Q37.2 30.9 36.7 31.95ZM39.35 41.8 33.65 36.1Q31.55 38.15 29.05 39.05Q26.55 39.95 24 39.95Q18.25 39.95 14.15 36.025Q10.05 32.1 10.05 26.3Q10.05 23.85 10.925 21.375Q11.8 18.9 14.1 16.55L7.6 10.05Q7.4 9.85 7.375 9.525Q7.35 9.2 7.6 8.95Q7.85 8.75 8.15 8.75Q8.45 8.75 8.7 8.95L40.45 40.7Q40.65 40.95 40.675 41.275Q40.7 41.6 40.45 41.8Q40.25 42.05 39.925 42.05Q39.6 42.05 39.35 41.8ZM24 38.45V26.4L15.2 17.6Q13.05 19.7 12.3 21.9Q11.55 24.1 11.55 26.3Q11.55 31.45 15.2 34.95Q18.85 38.45 24 38.45Z"/></svg>
